packages/tokens/icons/cloudSync/size24Px.svg

<svg viewBox="0 0 24 24" fill="none" xmlns="http://www.w3.org/2000/svg" width="1em" height="1em"><path d="M18.3333 14.5C20.4444 14.5 21.5 12.3182 21.5 10.6818C21.5 8.74921 20.1107 7.15197 18.308 6.89865C18.0609 4.42729 16.0399 2.5 13.5833 2.5C11.512 2.5 9.7504 3.87016 9.10068 5.78133C9.01228 5.77562 8.92313 5.77273 8.83333 5.77273C6.85498 5.77273 5.19442 7.17894 4.7364 9.07698C3.47002 9.27727 2.5 10.4079 2.5 11.7727C2.5 13.279 3.68147 14.5 5.13889 14.5" stroke="currentColor" stroke-linecap="round" stroke-linejoin="round"/><path d="M11.5909 11.2273C9.33156 11.2273 7.5 13.0589 7.5 15.3182C7.5 16.9957 8.50971 18.4374 9.95455 19.0687" stroke="currentColor" stroke-linecap="round"/><path d="M11.1818 10L12.409 11.2273L11.1818 12.4545" stroke="currentColor" stroke-linecap="round" stroke-linejoin="round"/><path d="M12.4091 19.2219C14.6684 19.2219 16.5 17.3904 16.5 15.131C16.5 13.4535 15.4903 12.0118 14.0455 11.3805" stroke="currentColor" stroke-linecap="round"/><path d="M12.8182 20.4492L11.591 19.2219L12.8182 17.9947" stroke="currentColor" stroke-linecap="round" stroke-linejoin="round"/></svg>

<svg xmlns="http://www.w3.org/2000/svg" fill="none" viewBox="0 0 24 24" width="1em" height="1em"><path stroke="currentColor" stroke-linecap="round" stroke-linejoin="round" d="M18.333 14.5c2.111 0 3.167-2.182 3.167-3.818 0-1.933-1.39-3.53-3.192-3.783C18.061 4.427 16.04 2.5 13.583 2.5c-2.071 0-3.833 1.37-4.482 3.281a4.147 4.147 0 0 0-.268-.008c-1.978 0-3.639 1.406-4.097 3.304-1.266.2-2.236 1.33-2.236 2.696 0 1.506 1.181 2.727 2.639 2.727"/><path stroke="currentColor" stroke-linecap="round" d="M11.59 11.227a4.09 4.09 0 0 0-1.635 7.842"/><path stroke="currentColor" stroke-linecap="round" stroke-linejoin="round" d="m11.182 10 1.227 1.227-1.227 1.227"/><path stroke="currentColor" stroke-linecap="round" d="M12.41 19.222a4.09 4.09 0 0 0 1.636-7.842"/><path stroke="currentColor" stroke-linecap="round" stroke-linejoin="round" d="m12.818 20.45-1.227-1.228 1.227-1.227"/></svg>
